source/img/svg/icon-money-1.svg

<svg width="30" height="30" viewBox="0 0 30 30" fill="none" xmlns="http://www.w3.org/2000/svg">
<path d="M21.4444 7H17.5556V19.75H16L19.5 24L23 19.75H21.4444V7Z" stroke="#EB5757" stroke-linecap="round" stroke-linejoin="round"/>
<path d="M17.3012 18.8991L17.5 18.7491V18.5V7.5V7.25091L17.3012 7.10087C16.0791 6.17878 14.7285 5.5 13 5.5C8.85786 5.5 5.5 8.85786 5.5 13C5.5 17.1421 8.85786 20.5 13 20.5C14.7285 20.5 16.0791 19.8212 17.3012 18.8991Z" stroke="#EB5757"/>
<path d="M17.3998 16.3003L17.5 16.1669L17.5 16L17.5004 10L17.5004 9.83315L17.4001 9.69971C16.3976 8.36495 14.7997 7.5 13 7.5C9.96243 7.5 7.5 9.96243 7.5 13C7.5 16.0376 9.96243 18.5 13 18.5C14.7997 18.5 16.3972 17.6349 17.3998 16.3003Z" stroke="#EB5757"/>
<path d="M12.4676 16C11.8306 16 11.3289 15.8521 10.9628 15.5563C10.6543 15.3102 10.5 15.0262 10.5 14.7042C10.5 14.5393 10.5477 14.4031 10.643 14.2958C10.7383 14.1859 10.87 14.1309 11.038 14.1309C11.2637 14.1309 11.4293 14.2513 11.5346 14.4921C11.6776 14.8141 12.0011 14.9751 12.5053 14.9751C12.9367 14.9751 13.3543 14.877 13.7581 14.6806C14.1769 14.4791 14.3864 14.2579 14.3864 14.017C14.3864 13.6872 14.256 13.4699 13.9951 13.3652C13.8095 13.2893 13.437 13.2448 12.8777 13.2317C12.4438 13.2212 12.0551 13.1361 11.7114 12.9764C11.2474 12.7592 11.0192 12.4476 11.0267 12.0419C11.0342 11.5314 11.2951 11.0641 11.8093 10.6401C12.3234 10.2134 12.8903 10 13.5098 10C13.7556 10 14.0591 10.0589 14.4202 10.1767C14.8692 10.3233 15.0937 10.4921 15.0937 10.6832C15.0937 10.8194 15.0485 10.9398 14.9582 11.0445C14.8579 11.1623 14.7287 11.2212 14.5707 11.2212C14.4528 11.2212 14.276 11.195 14.0403 11.1427C13.807 11.0903 13.6302 11.0641 13.5098 11.0641C13.1862 11.0668 12.879 11.1479 12.588 11.3076C12.2871 11.4699 12.1366 11.6466 12.1366 11.8377C12.1366 11.9372 12.1817 12.0196 12.272 12.0851C12.3648 12.1479 12.5028 12.1924 12.6859 12.2186C13.0069 12.2369 13.3267 12.2552 13.6452 12.2736C14.202 12.3181 14.6422 12.4817 14.9658 12.7644C15.3219 13.0785 15.5 13.5131 15.5 14.0681C15.5 14.7435 15.1313 15.2552 14.3939 15.6034C13.8321 15.8678 13.19 16 12.4676 16Z" fill="#EB5757"/>
<path d="M13.2998 9.5V16.5" stroke="#EB5757" stroke-linecap="round"/>
</svg>

<svg width="30" height="30" fill="none" xmlns="http://www.w3.org/2000/svg"><path d="M21.444 7h-3.888v12.75H16L19.5 24l3.5-4.25h-1.556V7z" stroke="#EB5757" stroke-linecap="round" stroke-linejoin="round"/><path d="M17.301 18.9l.199-.15V7.25l-.199-.15C16.08 6.18 14.73 5.5 13 5.5a7.5 7.5 0 100 15c1.729 0 3.08-.679 4.301-1.6z" stroke="#EB5757"/><path d="M17.4 16.3l.1-.133V9.833l-.1-.133a5.5 5.5 0 100 6.6z" stroke="#EB5757"/><path d="M12.468 16c-.637 0-1.14-.148-1.505-.444-.309-.246-.463-.53-.463-.852 0-.165.048-.3.143-.408a.495.495 0 01.395-.165c.226 0 .391.12.497.361.143.322.466.483.97.483.432 0 .85-.098 1.253-.294.419-.202.628-.423.628-.664 0-.33-.13-.547-.39-.652-.187-.076-.559-.12-1.118-.133a2.906 2.906 0 01-1.167-.256c-.464-.217-.692-.528-.684-.934.007-.51.268-.978.782-1.402.514-.427 1.081-.64 1.7-.64.247 0 .55.059.911.177.45.146.674.315.674.506a.537.537 0 01-.136.361.486.486 0 01-.387.177c-.118 0-.295-.026-.53-.078a2.648 2.648 0 00-.531-.079 1.922 1.922 0 00-.922.244c-.3.162-.451.339-.451.53 0 .1.045.182.135.247.093.063.23.107.414.134l.96.055c.556.044.996.208 1.32.49.356.315.534.75.534 1.304 0 .675-.369 1.187-1.106 1.535-.562.265-1.204.397-1.926.397z" fill="#EB5757"/><path d="M13.3 9.5v7" stroke="#EB5757" stroke-linecap="round"/></svg>
